X: 164
T: Come, Birds!
O: German
Q: "Allegretto."
%R: air, march
B: "The Everyday Song Book", 1927
F: http://www.library.pitt.edu/happybirthday/pdf/The_Everyday_Song_Book.pdf
Z: 2017 John Chambers <jc:trillian.mit.edu>
M: 2/4
L: 1/8
K: G
% - - - - - - - - - - - - - - - - - - - - - - - - - - - - -
[|\
[d2B2] [c2A2] | !mf![B2G2] z2 | [AF] [BG] [cA] [AF] | [G2G2] z2 | [BG] [cA] [dB] [BG] |
w: 1.~Come, come, come!    Bird-lings, has-ten home!  Spring has bro't the
w: 2.~Build, build, build! Soon shall nest be filled; Here a straw and
%
[AF] [BG] [cA] [AF] | "cres."[BG] [cA] [dB] [BG] | [AF] [BG] [cA] [AF] |
w: buds and flow-ers, Clad with green and leaf-y bow-ers;
w: there a feath-er   Neat-ly wov-en all to-geth-er;
%
!f![dB] [dB] [cA] [cA] | [B2G2] z2 | !mf![AF] [BG] [cA] [AF] | [G2G2] z2 |]
w: Bees be-gin to hum,     Hap-py bird-lings, come!
w: Sun-beams want to gild, Hap-py bird-lings, build!
% - - - - - - - - - - - - - - - - - - - - - - - - - - - - -
